X:643
T:Reel 643
M:4/4
K:Dmaj
L:1/8
D>C (3CB,A, B,D|EGB,D EGFE|FB,B,B, B,B,FE|FDEC D2A,2|D>B, (3B,B,B, GEFD|EDB,D EGFE|DB,B,B, DB,B,C|EFED E2D2|DFF2 AFF2|GFFG E2FE|DFF2 BFF2|EDB,C D2D2|dAFA d2FG|AFdF G2E2|FGFE DCB,A,|B,A,B,C D2F2|AGF2 A2F2|ADFD EDB,2|AGFG A2Bd|cecd BGF2|AGFA BAFA|G2FG E2B,C|DEFG AGFG|AGFD EGFD|
